proprietary/assets/icons/personen/personen-armen-om-schouders.svg

<svg height="64" viewBox="0 0 64 64" width="64" xmlns="http://www.w3.org/2000/svg"><path d="m0 0h64v64h-64z" fill="none"/><path d="m0 0h64v64h-64z" fill="none"/><path d="m40.5 11.9775c3.1366 0 4.952-1.9437 4.952-5.3887 0-3.2696-1.7337-5.5663-4.952-5.5663-3.0549 0-4.952 1.9427-4.952 5.5663 0 3.1793 1.8149 5.3887 4.952 5.3887z"/><path d="m41 14h-18c-11.0306 0-10.9665 6.92-10.9665 21.0591.2096 3.0518 2.4543 3.92 3.8006 3.92 0-.1417 0-1.6151 0-3.0491 0-.7156 0-5.5918 0-6.1175 0-3.4489.3357-6.1401.7565-7.4819.1282-.4087.4094-.3306.4094-.3306v15.9998 25.0002s4.8654.0391 5.2372-5.0498c0 0 .7277-19.2431.7359-19.457s.1675-.4932.5269-.4932.5083.2793.5165.4932.7308 19.3173.7308 19.3173c.2888 5.2383 5.2527 5.1895 5.2527 5.1895v-25.0002-18.3535c0-.2761.24-.407.5-.5.2344-.0838.5781-.1463 1.5-.1463s1.2656.0625 1.5.1463c.26.093.5.2239.5.5v18.3535 25.0002s4.9639.0488 5.2527-5.1895c0 0 .7226-19.1034.7308-19.3173s.1571-.4932.5165-.4932.5187.2793.5269.4932.7359 19.457.7359 19.457c.3718 5.0889 5.2372 5.0498 5.2372 5.0498v-25.0002-15.9998s.2812-.0781.4094.3306c.4208 1.3418.7565 4.033.7565 7.4819v6.1175 3.0491c1.3463 0 3.591-.8682 3.8006-3.92 0-14.1391.0641-21.0591-10.9665-21.0591z"/><path d="m23.5 11.9775c3.1371 0 4.952-2.2094 4.952-5.3887 0-3.6236-1.8972-5.5663-4.952-5.5663-3.2183 0-4.952 2.2968-4.952 5.5663 0 3.445 1.8154 5.3887 4.952 5.3887z"/></svg>

<?xml version="1.0" encoding="utf-8"?>
<!-- Generator: Adobe Illustrator 17.1.0, SVG Export Plug-In . SVG Version: 6.00 Build 0)  -->
<svg version="1.2" baseProfile="tiny" xmlns="http://www.w3.org/2000/svg" xmlns:xlink="http://www.w3.org/1999/xlink" x="0px"
	 y="0px" width="64px" height="64px" viewBox="0 0 64 64" xml:space="preserve">
<g id="_x36_4px_Boxes">
	<rect fill="none" width="64" height="64"/>
</g>
<g id="Production">
	<rect fill="none" width="64" height="64"/>
	<g>
		<path d="M40.5,11.9775c3.1366,0,4.952-1.9437,4.952-5.3887c0-3.2696-1.7337-5.5663-4.952-5.5663
			c-3.0549,0-4.952,1.9427-4.952,5.5663C35.548,9.7681,37.3629,11.9775,40.5,11.9775z"/>
		<path d="M41,14H23c-11.0306,0-10.9665,6.92-10.9665,21.0591c0.2096,3.0518,2.4543,3.92,3.8006,3.92c0-0.1417,0-1.6151,0-3.0491
			c0-0.7156,0-5.5918,0-6.1175c0-3.4489,0.3357-6.1401,0.7565-7.4819C16.7188,21.9219,17,22,17,22v15.9998V63
			c0,0,4.8654,0.0391,5.2372-5.0498c0,0,0.7277-19.2431,0.7359-19.457C22.9813,38.2793,23.1406,38,23.5,38
			c0.3594,0,0.5083,0.2793,0.5165,0.4932c0.0082,0.2139,0.7308,19.3173,0.7308,19.3173C25.0361,63.0488,30,63,30,63V37.9998V19.6463
			c0-0.2761,0.24-0.407,0.5-0.5C30.7344,19.0625,31.0781,19,32,19s1.2656,0.0625,1.5,0.1463c0.26,0.093,0.5,0.2239,0.5,0.5v18.3535
			V63c0,0,4.9639,0.0488,5.2527-5.1895c0,0,0.7226-19.1034,0.7308-19.3173C39.9917,38.2793,40.1406,38,40.5,38
			c0.3594,0,0.5187,0.2793,0.5269,0.4932c0.0082,0.2139,0.7359,19.457,0.7359,19.457C42.1346,63.0391,47,63,47,63V37.9998V22
			c0,0,0.2812-0.0781,0.4094,0.3306c0.4208,1.3418,0.7565,4.033,0.7565,7.4819c0,0.5257,0,5.4019,0,6.1175
			c0,1.434,0,2.9074,0,3.0491c1.3463,0,3.591-0.8682,3.8006-3.92C51.9665,20.92,52.0306,14,41,14z"/>
		<path d="M23.5,11.9775c3.1371,0,4.952-2.2094,4.952-5.3887c0-3.6236-1.8972-5.5663-4.952-5.5663
			c-3.2183,0-4.952,2.2968-4.952,5.5663C18.548,10.0338,20.3634,11.9775,23.5,11.9775z"/>
	</g>
</g>
</svg>
